X: 26102
T: McFadden's Own
R: reel
M: 4/4
K: Dmajor
F2ED EA,3|:DFAF DFdB|AGFD EFGA|BdAG FDDE|
F2ED EA,3|DFAF DFdB|AGFD EFGA|BdAG FDD2||
dAFA defe|dBBA BE3|dAFA dgfe|dABG FDD2|
d2dc defe|dBBA BE3|dcBc dbaf|dBAG F2dB||AGFD EA,3:|

